X: 3221
T: Beggar Thomas Pomerleau's March
R: polka
M: 2/4
K: Gmajor
|:(3(D/E/F/|G)AFD|(3(E/F/E/) D/^C/ D(3(D/E/F/|G)AGB|
G/A/B/(G/ D)(3(D/E/F/|G)AFD|(3(E/F/E/) D/^C/ D(3(D/E/F/|G)AGB|[G3B3]:|
|:(A/B/|c)cBB|(3(B/c/B/) A/G/ F/G/A/B/|A(3(D/E/F/) GA|(3(B/c/B/) A/G/ A>(B|
c)cBB|(3(B/c/B/) A/G/ F/G/A/B/|A(3(D/E/F/ G)B|1 [G3B3]:|2 G/A/B/(G/ D)||

